svg/boy_1525y_negative.svg

<svg width="48" height="48" viewBox="0 0 48 48" fill="none" xmlns="http://www.w3.org/2000/svg">
<path fill-rule="evenodd" clip-rule="evenodd" d="M0 0V47.9994H47.9994V0H0ZM23.9217 4.67374C23.9347 4.67374 23.9447 4.67364 23.9587 4.67374C32.6696 4.68324 34.1696 8.60399 34.1186 20.4585C33.9856 21.4925 34.2676 23.2995 32.6836 23.2045C32.4316 25.3925 31.4636 27.4175 29.7906 28.4644C27.6077 29.8304 25.5837 31.2604 24.0017 31.2554C21.6917 31.1834 20.3897 30.0974 17.7658 28.4444C16.1548 27.4315 15.4548 25.3375 15.2988 23.0895C13.7498 22.8515 13.7218 21.1665 13.7108 20.4585C13.6358 9.87668 15.0198 4.69774 23.9217 4.67374ZM18.9528 11.7169C18.7168 14.0658 18.1668 14.4768 17.5798 14.6068C17.4138 14.6438 17.7648 13.2028 17.5998 13.2318C17.4618 13.2568 16.8048 14.7478 16.6758 14.8138C16.4608 14.9248 16.2668 15.1468 16.1018 15.5328V21.7027C16.1018 24.0707 16.6858 26.4227 18.3628 27.4787C20.7367 28.9726 21.9127 29.9576 24.0017 30.0176C25.4327 30.0216 27.2617 28.7326 29.2356 27.4977C31.0106 26.3877 31.9176 24.0577 31.9176 21.7027C31.9026 19.2478 31.9026 16.7908 31.8586 14.3358C31.4796 14.2238 31.0266 14.0398 30.8176 14.1018C30.5906 14.1678 30.9986 14.8728 30.7496 14.9198C30.4386 14.9778 29.5746 14.2648 29.2356 14.2928C28.9456 14.3168 29.1856 15.0828 28.8806 15.0858C28.5806 15.0878 27.4837 14.0388 27.1737 14.0208C26.8797 14.0048 27.3737 15.0228 27.0737 14.9898C26.7047 14.9498 25.3657 13.0278 24.9917 12.9628C24.6617 12.9048 25.2987 14.7068 24.9707 14.6308C24.6017 14.5458 23.2567 12.4098 22.8957 12.3028C22.6007 12.2148 23.2867 14.1598 22.9997 14.0588C21.3637 13.4778 19.9087 12.6768 18.9528 11.7169ZM20.2297 17.1168C20.4946 17.1167 20.7486 17.2217 20.9359 17.4089C21.1233 17.5961 21.2286 17.85 21.2287 18.1148C21.2286 18.3796 21.1233 18.6335 20.9359 18.8206C20.7486 19.0078 20.4946 19.1129 20.2297 19.1128C19.9651 19.1126 19.7114 19.0074 19.5242 18.8203C19.3371 18.6332 19.2319 18.3794 19.2318 18.1148C19.2319 17.8501 19.3371 17.5964 19.5242 17.4093C19.7114 17.2221 19.9651 17.1169 20.2297 17.1168ZM27.7267 17.1168C27.9913 17.1169 28.245 17.2221 28.4322 17.4093C28.6193 17.5964 28.7245 17.8501 28.7246 18.1148C28.7245 18.3794 28.6193 18.6332 28.4322 18.8203C28.245 19.0074 27.9913 19.1126 27.7267 19.1128C27.5954 19.113 27.4655 19.0873 27.3442 19.0372C27.2229 18.9872 27.1127 18.9137 27.0198 18.821C26.927 18.7283 26.8533 18.6182 26.803 18.4971C26.7527 18.3759 26.7267 18.246 26.7267 18.1148C26.7267 17.9836 26.7527 17.8537 26.803 17.7325C26.8533 17.6113 26.927 17.5012 27.0198 17.4085C27.1127 17.3159 27.2229 17.2424 27.3442 17.1923C27.4655 17.1423 27.5954 17.1166 27.7267 17.1168ZM23.8887 21.7267C23.9187 21.7264 23.9487 21.7264 23.9787 21.7267C24.0969 21.7267 24.214 21.7315 24.3232 21.7408C24.4324 21.7501 24.5316 21.7637 24.6152 21.7809C24.6988 21.7981 24.7651 21.8185 24.8103 21.8409C24.8555 21.8634 24.8787 21.8874 24.8787 21.9117C24.8794 21.9361 24.8566 21.9603 24.8117 21.9828C24.7668 22.0054 24.7006 22.0259 24.6169 22.0432C24.5333 22.0605 24.4339 22.0742 24.3243 22.0835C24.2148 22.0929 24.0973 22.0977 23.9787 22.0977C23.86 22.0978 23.7424 22.093 23.6328 22.0836C23.5231 22.0743 23.4236 22.0605 23.3398 22.0433C23.2561 22.026 23.1898 22.0054 23.1448 21.9829C23.0998 21.9603 23.077 21.9361 23.0777 21.9117C23.0765 21.8657 23.159 21.8212 23.309 21.787C23.459 21.7528 23.6657 21.7313 23.8887 21.7267ZM23.9527 24.9257C24.0347 24.9256 24.1167 24.9256 24.1987 24.9257C24.6532 24.9257 25.1033 24.929 25.5232 24.9354C25.943 24.9417 26.3245 24.9511 26.6457 24.9629C26.967 24.9747 27.2217 24.9887 27.3953 25.0041C27.5689 25.0195 27.6581 25.036 27.6577 25.0527C27.6581 25.0694 27.5689 25.0859 27.3953 25.1013C27.2217 25.1167 26.967 25.1307 26.6457 25.1425C26.3245 25.1543 25.943 25.1636 25.5232 25.17C25.1033 25.1764 24.6532 25.1797 24.1987 25.1797C23.744 25.1797 23.2937 25.1764 22.8736 25.17C22.4535 25.1637 22.0718 25.1543 21.7504 25.1425C21.4289 25.1307 21.174 25.1167 21.0003 25.1013C20.8265 25.0859 20.7373 25.0694 20.7377 25.0527C20.7347 25.0205 21.0651 24.9895 21.662 24.9659C22.2588 24.9423 23.0777 24.928 23.9527 24.9257ZM3.99795 34.0156H43.9974V44.0154H3.99795V34.0156ZM23.0307 35.3456C22.5527 35.3456 22.1237 35.4486 21.7457 35.6536C21.3677 35.8555 21.0757 36.1355 20.8667 36.4935C20.6617 36.8515 20.5607 37.2475 20.5607 37.6815H21.9767C21.9767 37.3225 22.0677 37.0345 22.2497 36.8155C22.4357 36.5945 22.6887 36.4835 23.0077 36.4835C23.3037 36.4835 23.5317 36.5745 23.6907 36.7575C23.8507 36.9365 23.9297 37.1835 23.9297 37.4995C23.9297 37.7305 23.8537 37.9745 23.7007 38.2315C23.5507 38.4895 23.3177 38.7915 23.0017 39.1365L20.7007 41.5895V42.5565H25.5757V41.4175H22.5177L24.1347 39.7125C24.5777 39.2275 24.8917 38.8015 25.0737 38.4375C25.2567 38.0725 25.3477 37.7145 25.3477 37.3625C25.3477 36.7215 25.1427 36.2245 24.7357 35.8725C24.3317 35.5206 23.7637 35.3456 23.0307 35.3456ZM8.60189 35.4336L5.65463 36.4875V37.6365L7.34011 37.1125V42.5565H8.75229V35.4336H8.60189ZM11.6883 35.4426L11.2773 39.0585L12.4022 39.3355L12.5392 39.2085C12.7472 39.0325 13.0182 38.9445 13.3542 38.9445C13.7182 38.9445 14.0012 39.0525 14.1992 39.2675C14.3982 39.4825 14.4982 39.7925 14.4982 40.1965C14.4982 40.6165 14.4112 40.9425 14.2382 41.1735C14.0662 41.4015 13.8192 41.5155 13.5002 41.5155C13.2132 41.5155 12.9822 41.4335 12.8032 41.2705C12.6272 41.1045 12.5232 40.8735 12.4942 40.5775H11.0983C11.1113 40.9815 11.2223 41.3415 11.4343 41.6575C11.6493 41.9735 11.9413 42.2185 12.3092 42.3945C12.6772 42.5665 13.0762 42.6535 13.5062 42.6535C13.9982 42.6535 14.4242 42.5535 14.7852 42.3545C15.1472 42.1535 15.4232 41.8725 15.6152 41.5115C15.8112 41.1465 15.9082 40.7345 15.9082 40.2745C15.9082 39.5195 15.7162 38.9315 15.3322 38.5115C14.9482 38.0915 14.4182 37.8805 13.7402 37.8805C13.3622 37.8805 13.0052 37.9705 12.6702 38.1495L12.8462 36.6205H15.6742V35.4426H11.6883ZM27.0661 35.4426L26.6561 39.0585L27.7791 39.3355L27.9161 39.2085C28.124 39.0325 28.397 38.9445 28.732 38.9445C29.097 38.9445 29.379 39.0525 29.578 39.2675C29.777 39.4825 29.875 39.7925 29.875 40.1965C29.875 40.6165 29.79 40.9425 29.617 41.1735C29.445 41.4015 29.198 41.5155 28.879 41.5155C28.592 41.5155 28.359 41.4335 28.18 41.2705C28.004 41.1045 27.9021 40.8735 27.873 40.5775H26.4751C26.4881 40.9815 26.6011 41.3415 26.8121 41.6575C27.0271 41.9735 27.3191 42.2185 27.6881 42.3945C28.056 42.5665 28.455 42.6535 28.885 42.6535C29.377 42.6535 29.803 42.5535 30.164 42.3545C30.526 42.1535 30.802 41.8725 30.994 41.5115C31.19 41.1465 31.287 40.7345 31.287 40.2745C31.287 39.5195 31.095 38.9315 30.711 38.5115C30.327 38.0915 29.797 37.8805 29.119 37.8805C28.741 37.8805 28.384 37.9705 28.049 38.1495L28.225 36.6205H31.053V35.4426H27.0661ZM31.717 35.4426L34.053 39.9765V42.5565H35.543V39.9765L37.8769 35.4426H36.2749L34.795 38.6475L33.324 35.4426H31.717ZM40.1779 37.1715C39.5489 37.1715 39.0389 37.3305 38.6479 37.6455C38.2609 37.9585 38.0679 38.3485 38.0679 38.8175C38.0679 39.6225 38.6959 40.1575 39.9529 40.4215C40.3309 40.4995 40.6039 40.5875 40.7729 40.6885C40.9459 40.7865 41.0329 40.9225 41.0329 41.0955C41.0329 41.2615 40.9619 41.3975 40.8219 41.5015C40.6849 41.6025 40.4829 41.6515 40.2129 41.6515C39.9229 41.6515 39.6919 41.5845 39.5199 41.4505C39.3469 41.3175 39.2529 41.1255 39.2399 40.8745H37.9019C37.9019 41.1935 37.9999 41.4925 38.1949 41.7695C38.3909 42.0425 38.6599 42.2595 39.0019 42.4195C39.3469 42.5755 39.7409 42.6535 40.1839 42.6535C40.8379 42.6535 41.3719 42.5045 41.7849 42.2085C42.1989 41.9085 42.4059 41.5185 42.4059 41.0365C42.4059 40.3625 42.0329 39.8885 41.2869 39.6145C41.0459 39.5265 40.7499 39.4485 40.3979 39.3805C40.0469 39.3085 39.7959 39.2245 39.6459 39.1305C39.4999 39.0325 39.4259 38.9055 39.4259 38.7495C39.4259 38.5835 39.4909 38.4465 39.6209 38.3395C39.7509 38.2315 39.9359 38.1795 40.1739 38.1795C40.4509 38.1795 40.6529 38.2445 40.7829 38.3785C40.9129 38.5085 40.9799 38.6745 40.9799 38.8765H42.3909C42.3909 38.3715 42.1889 37.9615 41.7849 37.6455C41.3849 37.3305 40.8489 37.1715 40.1779 37.1715ZM16.8672 38.9405V40.0795H19.6172V38.9405H16.8672Z" fill="#333333"/>
</svg>

<?xml version="1.0" encoding="UTF-8" standalone="no"?>
<!-- Created with Inkscape (http://www.inkscape.org/) -->
<svg id="svg8" xmlns:rdf="http://www.w3.org/1999/02/22-rdf-syntax-ns#" xmlns="http://www.w3.org/2000/svg" height="48" viewBox="0 0 12.7 12.7" width="48" version="1.1" xmlns:cc="http://creativecommons.org/ns#" xmlns:dc="http://purl.org/dc/elements/1.1/">
 <title id="title4753">UIO-icon</title>
 <metadata id="metadata5">
  <rdf:RDF>
   <cc:Work rdf:about="">
    <dc:format>image/svg+xml</dc:format>
    <dc:type rdf:resource="http://purl.org/dc/dcmitype/StillImage"/>
    <dc:title>UIO-icon</dc:title>
    <dc:creator>
     <cc:Agent>
      <dc:title>Joaquín Urbano</dc:title>
     </cc:Agent>
    </dc:creator>
    <dc:rights>
     <cc:Agent>
      <dc:title>GPL</dc:title>
     </cc:Agent>
    </dc:rights>
   </cc:Work>
  </rdf:RDF>
 </metadata>
 <path id="rect890" d="m0 0v48h48v-48h-48zm23.922 4.6738c0.013 0 0.023-0.0001 0.037 0 8.711 0.0095 10.211 3.9303 10.16 15.785-0.133 1.034 0.149 2.841-1.435 2.746-0.252 2.188-1.22 4.213-2.893 5.26-2.183 1.366-4.207 2.796-5.789 2.791-2.31-0.072-3.612-1.158-6.236-2.811-1.611-1.013-2.311-3.107-2.467-5.355-1.549-0.238-1.577-1.923-1.588-2.631-0.075-10.582 1.309-15.761 10.211-15.785zm-4.969 7.0432c-0.236 2.349-0.786 2.76-1.373 2.89-0.166 0.037 0.185-1.404 0.02-1.375-0.138 0.025-0.795 1.516-0.924 1.582-0.215 0.111-0.409 0.333-0.574 0.719v6.17c0 2.368 0.584 4.72 2.261 5.776 2.374 1.494 3.55 2.479 5.639 2.539 1.431 0.004 3.26-1.285 5.234-2.52 1.775-1.11 2.682-3.44 2.682-5.795-0.015-2.455-0.015-4.912-0.059-7.367-0.379-0.112-0.832-0.296-1.041-0.234-0.227 0.066 0.181 0.771-0.068 0.818-0.311 0.058-1.175-0.655-1.514-0.627-0.29 0.024-0.05 0.79-0.355 0.793-0.3 0.002-1.397-1.047-1.707-1.065-0.294-0.016 0.2 1.002-0.1 0.969-0.369-0.04-1.708-1.962-2.082-2.027-0.33-0.058 0.307 1.744-0.021 1.668-0.369-0.085-1.714-2.221-2.075-2.328-0.295-0.088 0.391 1.857 0.104 1.756-1.636-0.581-3.091-1.382-4.047-2.342zm1.277 5.4a0.99855 0.99855 0 0 1 0.999 0.998 0.99855 0.99855 0 0 1 -0.999 0.998 0.99855 0.99855 0 0 1 -0.998 -0.998 0.99855 0.99855 0 0 1 0.998 -0.998zm7.497 0a0.99855 0.99855 0 0 1 0.998 0.998 0.99855 0.99855 0 0 1 -0.998 0.998 0.99855 0.99855 0 0 1 -1 -0.998 0.99855 0.99855 0 0 1 1 -0.998zm-3.838 4.61a0.89992 0.18492 0 0 1 0.09 0 0.89992 0.18492 0 0 1 0.9 0.185 0.89992 0.18492 0 0 1 -0.9 0.186 0.89992 0.18492 0 0 1 -0.901 -0.186 0.89992 0.18492 0 0 1 0.811 -0.185zm0.064 3.199a3.4594 0.12688 0 0 1 0.246 0 3.4594 0.12688 0 0 1 3.459 0.127 3.4594 0.12688 0 0 1 -3.459 0.127 3.4594 0.12688 0 0 1 -3.461 -0.127 3.4594 0.12688 0 0 1 3.215 -0.127zm-19.955 9.09h40v10h-40v-10zm19.033 1.33c-0.478 0-0.907 0.103-1.285 0.308-0.378 0.202-0.67 0.482-0.879 0.84-0.205 0.358-0.306 0.754-0.306 1.188h1.416c0-0.359 0.091-0.647 0.273-0.866 0.186-0.221 0.439-0.332 0.758-0.332 0.296 0 0.524 0.091 0.683 0.274 0.16 0.179 0.239 0.426 0.239 0.742 0 0.231-0.076 0.475-0.229 0.732-0.15 0.258-0.383 0.56-0.699 0.905l-2.301 2.453v0.967h4.875v-1.139h-3.058l1.617-1.705c0.443-0.485 0.757-0.911 0.939-1.275 0.183-0.365 0.274-0.723 0.274-1.075 0-0.641-0.205-1.138-0.612-1.49-0.404-0.352-0.972-0.527-1.705-0.527zm-14.429 0.088l-2.9473 1.054v1.149l1.6855-0.524v5.444h1.4122v-7.123h-0.1504zm3.0864 0.009l-0.411 3.616 1.125 0.277 0.137-0.127c0.208-0.176 0.479-0.264 0.815-0.264 0.364 0 0.647 0.108 0.845 0.323 0.199 0.215 0.299 0.525 0.299 0.929 0 0.42-0.087 0.746-0.26 0.977-0.172 0.228-0.419 0.342-0.738 0.342-0.287 0-0.518-0.082-0.697-0.245-0.176-0.166-0.28-0.397-0.309-0.693h-1.396c0.013 0.404 0.124 0.764 0.336 1.08 0.215 0.316 0.507 0.561 0.875 0.737 0.368 0.172 0.767 0.259 1.197 0.259 0.492 0 0.918-0.1 1.279-0.299 0.362-0.201 0.638-0.482 0.83-0.843 0.196-0.365 0.293-0.777 0.293-1.237 0-0.755-0.192-1.343-0.576-1.763s-0.914-0.631-1.592-0.631c-0.378 0-0.735 0.09-1.07 0.269l0.176-1.529h2.828v-1.178h-3.986zm15.378 0l-0.41 3.616 1.123 0.277 0.137-0.127c0.208-0.176 0.481-0.264 0.816-0.264 0.365 0 0.647 0.108 0.846 0.323s0.297 0.525 0.297 0.929c0 0.42-0.085 0.746-0.258 0.977-0.172 0.228-0.419 0.342-0.738 0.342-0.287 0-0.52-0.082-0.699-0.245-0.176-0.166-0.278-0.397-0.307-0.693h-1.398c0.013 0.404 0.126 0.764 0.337 1.08 0.215 0.316 0.507 0.561 0.876 0.737 0.368 0.172 0.767 0.259 1.197 0.259 0.492 0 0.918-0.1 1.279-0.299 0.362-0.201 0.638-0.482 0.83-0.843 0.196-0.365 0.293-0.777 0.293-1.237 0-0.755-0.192-1.343-0.576-1.763s-0.914-0.631-1.592-0.631c-0.378 0-0.735 0.09-1.07 0.269l0.176-1.529h2.828v-1.178h-3.987zm4.651 0l2.336 4.534v2.58h1.49v-2.58l2.334-4.534h-1.602l-1.48 3.205-1.471-3.205h-1.607zm8.461 1.729c-0.629 0-1.139 0.159-1.53 0.474-0.387 0.313-0.58 0.703-0.58 1.172 0 0.805 0.628 1.34 1.885 1.604 0.378 0.078 0.651 0.166 0.82 0.267 0.173 0.098 0.26 0.234 0.26 0.407 0 0.166-0.071 0.302-0.211 0.406-0.137 0.101-0.339 0.15-0.609 0.15-0.29 0-0.521-0.067-0.693-0.201-0.173-0.133-0.267-0.325-0.28-0.576h-1.338c0 0.319 0.098 0.618 0.293 0.895 0.196 0.273 0.465 0.49 0.807 0.65 0.345 0.156 0.739 0.234 1.182 0.234 0.654 0 1.188-0.149 1.601-0.445 0.414-0.3 0.621-0.69 0.621-1.172 0-0.674-0.373-1.148-1.119-1.422-0.241-0.088-0.537-0.166-0.889-0.234-0.351-0.072-0.602-0.156-0.752-0.25-0.146-0.098-0.22-0.225-0.22-0.381 0-0.166 0.065-0.303 0.195-0.41 0.13-0.108 0.315-0.16 0.553-0.16 0.277 0 0.479 0.065 0.609 0.199 0.13 0.13 0.197 0.296 0.197 0.498h1.411c0-0.505-0.202-0.915-0.606-1.231-0.4-0.315-0.936-0.474-1.607-0.474zm-23.311 1.769v1.139h2.75v-1.139h-2.75z" fill-rule="evenodd" transform="scale(.26458)" fill="#333"/>
</svg>
